svg/color/botto.svg

<svg version="1.1" id="Layer_1" xmlns="http://www.w3.org/2000/svg" xmlns:xlink="http://www.w3.org/1999/xlink" x="0px" y="0px"
	 width="100%" viewBox="0 0 400 400" enable-background="new 0 0 400 400" xml:space="preserve">
<path fill="#1C1C1C" opacity="1.000000" stroke="none" 
	d="
M257.000000,401.000000 
	C171.333328,401.000000 86.166664,401.000000 1.000000,401.000000 
	C1.000000,267.666656 1.000000,134.333328 1.000000,1.000000 
	C134.333328,1.000000 267.666656,1.000000 401.000000,1.000000 
	C401.000000,134.333328 401.000000,267.666656 401.000000,401.000000 
	C353.166656,401.000000 305.333344,401.000000 257.000000,401.000000 
M118.678146,101.003105 
	C116.268036,101.003105 113.857933,101.003105 110.395660,101.003105 
	C116.677055,106.892227 121.947563,112.158302 127.581795,117.001221 
	C131.305954,120.202324 132.804291,123.785072 132.790588,128.711975 
	C132.656494,176.876816 132.657547,225.042313 132.789932,273.207184 
	C132.803421,278.117493 131.370346,281.725830 127.636482,284.941711 
	C121.951126,289.838348 116.641563,295.171326 110.589561,300.867615 
	C149.625412,300.867615 187.605713,301.269867 225.566849,300.595093 
	C235.509735,300.418365 245.799988,298.046265 255.230682,294.705933 
	C288.906677,282.778076 294.665344,252.697571 289.040527,232.416153 
	C283.998962,214.237823 270.228271,205.168747 253.357346,200.211670 
	C245.024323,197.763260 236.239243,196.853333 230.142715,195.712234 
	C237.528107,193.564041 247.531021,191.578003 256.783203,187.768600 
	C275.312653,180.139481 285.346466,164.134705 284.558807,145.604843 
	C283.750458,126.588432 273.829956,114.020180 253.936035,106.931717 
	C241.226944,102.403305 228.006866,101.046875 214.628174,101.020035 
	C182.962631,100.956497 151.296860,101.001099 118.678146,101.003105 
z"/>
<path fill="#FEFEFE" opacity="1.000000" stroke="none" 
	d="
M119.154663,101.002548 
	C151.296860,101.001099 182.962631,100.956497 214.628174,101.020035 
	C228.006866,101.046875 241.226944,102.403305 253.936035,106.931717 
	C273.829956,114.020180 283.750458,126.588432 284.558807,145.604843 
	C285.346466,164.134705 275.312653,180.139481 256.783203,187.768600 
	C247.531021,191.578003 237.528107,193.564041 230.142715,195.712234 
	C236.239243,196.853333 245.024323,197.763260 253.357346,200.211670 
	C270.228271,205.168747 283.998962,214.237823 289.040527,232.416153 
	C294.665344,252.697571 288.906677,282.778076 255.230682,294.705933 
	C245.799988,298.046265 235.509735,300.418365 225.566849,300.595093 
	C187.605713,301.269867 149.625412,300.867615 110.589561,300.867615 
	C116.641563,295.171326 121.951126,289.838348 127.636482,284.941711 
	C131.370346,281.725830 132.803421,278.117493 132.789932,273.207184 
	C132.657547,225.042313 132.656494,176.876816 132.790588,128.711975 
	C132.804291,123.785072 131.305954,120.202324 127.581795,117.001221 
	C121.947563,112.158302 116.677055,106.892227 110.395660,101.003105 
	C113.857933,101.003105 116.268036,101.003105 119.154663,101.002548 
M184.069214,264.500000 
	C184.065430,272.985474 184.129929,281.471771 184.026505,289.956024 
	C183.980911,293.695160 185.389755,295.459076 189.317413,295.254364 
	C193.632156,295.029480 197.971008,295.287201 202.288757,295.095703 
	C217.195404,294.434479 227.480957,286.964905 231.929886,272.748993 
	C237.064896,256.340759 237.128098,239.626740 232.500885,223.104904 
	C229.443710,212.188965 222.586243,203.897949 211.172607,201.553314 
	C202.522568,199.776352 193.478882,199.915634 185.021683,199.235275 
	C184.392517,200.535934 184.133392,200.821854 184.132919,201.108215 
	C184.098557,221.905457 184.084717,242.702728 184.069214,264.500000 
M210.091904,191.852753 
	C218.685822,188.325317 223.978195,181.704880 226.988556,173.213196 
	C231.313400,161.013672 232.036377,148.406616 229.588318,135.784836 
	C225.550446,114.966255 215.275620,106.809860 193.936172,106.784103 
	C192.936432,106.782898 191.936646,106.768723 190.936935,106.772438 
	C184.409637,106.796738 184.070435,107.099472 184.067841,113.465790 
	C184.057419,138.959885 184.063004,164.453995 184.080353,189.948074 
	C184.081223,191.221329 184.247757,192.494476 184.413803,194.859390 
	C192.952606,193.904541 201.142136,192.988754 210.091904,191.852753 
z"/>
<path fill="#1E1E1E" opacity="1.000000" stroke="none" 
	d="
M184.069214,264.000000 
	C184.084717,242.702728 184.098557,221.905457 184.132919,201.108215 
	C184.133392,200.821854 184.392517,200.535934 185.021683,199.235275 
	C193.478882,199.915634 202.522568,199.776352 211.172607,201.553314 
	C222.586243,203.897949 229.443710,212.188965 232.500885,223.104904 
	C237.128098,239.626740 237.064896,256.340759 231.929886,272.748993 
	C227.480957,286.964905 217.195404,294.434479 202.288757,295.095703 
	C197.971008,295.287201 193.632156,295.029480 189.317413,295.254364 
	C185.389755,295.459076 183.980911,293.695160 184.026505,289.956024 
	C184.129929,281.471771 184.065430,272.985474 184.069214,264.000000 
z"/>
<path fill="#1E1E1E" opacity="1.000000" stroke="none" 
	d="
M209.711792,191.962860 
	C201.142136,192.988754 192.952606,193.904541 184.413803,194.859390 
	C184.247757,192.494476 184.081223,191.221329 184.080353,189.948074 
	C184.063004,164.453995 184.057419,138.959885 184.067841,113.465790 
	C184.070435,107.099472 184.409637,106.796738 190.936935,106.772438 
	C191.936646,106.768723 192.936432,106.782898 193.936172,106.784103 
	C215.275620,106.809860 225.550446,114.966255 229.588318,135.784836 
	C232.036377,148.406616 231.313400,161.013672 226.988556,173.213196 
	C223.978195,181.704880 218.685822,188.325317 209.711792,191.962860 
z"/>
</svg>

<svg xmlns="http://www.w3.org/2000/svg" xml:space="preserve" viewBox="0 0 400 400"><path fill="#1C1C1C" d="M257 401H1V1h400v400zM118.678 101.003h-8.282c6.281 5.89 11.552 11.155 17.186 15.998 3.724 3.201 5.222 6.784 5.209 11.711q-.2 72.247-.001 144.495c.013 4.91-1.42 8.519-5.154 11.735-5.685 4.896-10.994 10.23-17.046 15.926 39.035 0 77.016.402 114.977-.273 9.943-.177 20.233-2.549 29.664-5.89 33.676-11.927 39.434-42.007 33.81-62.289-5.042-18.178-18.813-27.247-35.684-32.204-8.333-2.449-17.118-3.359-23.214-4.5 7.385-2.148 17.388-4.134 26.64-7.943 18.53-7.63 28.563-23.634 27.776-42.164-.809-19.017-10.729-31.585-30.623-38.673-12.71-4.529-25.93-5.885-39.308-5.912-31.665-.064-63.331-.019-95.95-.017"/><path fill="#FEFEFE" d="M119.155 101.003c32.142-.002 63.808-.047 95.473.017 13.379.027 26.599 1.383 39.308 5.912 19.894 7.088 29.814 19.656 30.623 38.673.787 18.53-9.246 34.534-27.776 42.164-9.252 3.809-19.255 5.795-26.64 7.943 6.096 1.141 14.881 2.051 23.214 4.5 16.871 4.957 30.642 14.026 35.684 32.204 5.624 20.282-.134 50.362-33.81 62.29-9.431 3.34-19.721 5.712-29.664 5.89-37.961.674-75.942.272-114.977.272 6.052-5.697 11.361-11.03 17.046-15.926 3.734-3.216 5.167-6.825 5.154-11.735q-.2-72.247 0-144.495c.014-4.927-1.484-8.51-5.208-11.71-5.634-4.844-10.905-10.11-17.186-15.999zM184.069 264.5c-.004 8.485.06 16.972-.042 25.456-.046 3.74 1.363 5.503 5.29 5.298 4.315-.225 8.654.033 12.972-.158 14.906-.662 25.192-8.131 29.64-22.347 5.136-16.408 5.2-33.122.572-49.644-3.057-10.916-9.915-19.207-21.328-21.552-8.65-1.777-17.694-1.637-26.151-2.318-.63 1.3-.889 1.587-.89 1.873-.033 20.797-.047 41.595-.063 63.392m26.023-72.647c8.594-3.528 13.886-10.148 16.897-18.64 4.324-12.2 5.047-24.806 2.6-37.428-4.039-20.819-14.313-28.975-35.653-29-1-.002-2-.016-3-.013-6.526.025-6.866.327-6.868 6.694q-.014 38.241.012 76.482c.001 1.273.168 2.546.334 4.911 8.539-.954 16.728-1.87 25.678-3.006"/><path fill="#1E1E1E" d="M184.07 264c.015-21.297.029-42.095.063-62.892 0-.286.26-.572.889-1.873 8.457.68 17.5.541 26.15 2.318 11.414 2.345 18.272 10.636 21.329 21.552 4.627 16.522 4.564 33.236-.571 49.644-4.449 14.216-14.735 21.685-29.641 22.347-4.318.191-8.657-.067-12.972.158-3.927.205-5.336-1.559-5.29-5.298.103-8.484.038-16.97.042-25.956m25.643-72.037c-8.57 1.026-16.76 1.942-25.298 2.896-.166-2.365-.333-3.638-.334-4.91a70212 70212 0 0 1-.012-76.483c.002-6.367.342-6.67 6.869-6.694 1-.003 2 .01 3 .012 21.339.026 31.613 8.182 35.651 29 2.448 12.623 1.725 25.23-2.6 37.43-3.01 8.49-8.302 15.111-17.276 18.749"/></svg>
